packages/icons/assets/Memory.svg

<svg xmlns="http://www.w3.org/2000/svg" fill="none" viewBox="0 0 16 16"><g clip-path="url(#Memory_svg__Memory_svg__Memory_svg__Memory_svg__clip0_16_26)"><path fill="#414141" d="M11.294 14.889H0V9.08901c.308759-.00967.601064-.14146.812739-.36645.211671-.22499.325421-.52478.316261-.83355.00262-.31431-.11509-.6177-.329-.848-.102218-.11023-.225944-.19833-.363539-.25887C.298866 6.7216.150322 6.6899 0 6.68901v-.8c.0759086.00017.151729.00518.227.015-.075205-.01047-.1510705-.01549-.227-.015v-3h16v3h-.006c-.0669.00002-.1337.00436-.2.013.0684-.0083.1371-.01264.206-.013v.8c-.3183 0-.6235.12643-.8485.35147-.2251.22504-.3515.53027-.3515.84853s.1264.62348.3515.84853c.225.22504.5302.35147.8485.35147V14.889h-4.706zm3.706-1V9.58301c-.2721-.19072-.4943-.44421-.6477-.739-.1533-.29479-.2334-.6222-.2334-.9545 0-.33231.0801-.65972.2334-.95451.1534-.29479.3756-.54827.6477-.73899v-2.307H1v2.308c.27429.18827.49817.44102.65195.73603.15379.29502.23278.62329.23005.95597.00306.33302-.07578.66168-.22958.95708-.1538.29539-.37784.54845-.65242.73692V13.889h.882v-1h.941v1h.941v-1h.941v1h.941v-1h.941v1h.941v-1h.941v1h.941v-1h.941v1h.941v-1h.941v1H15zm-1.824-3h-2.823V4.88901h2.824V10.889h-.001zm-1.882-.99999h.941v-4h-.941v4zm-1.882.99999H6.588V4.88901h2.824V10.889zm-1.883-.99999h.941v-4h-.941v4zm-1.882.99999H2.824V4.88901h2.823V10.889zm-1.882-.99999h.941v-4h-.941v4zm-3.765-8V.889008h16V1.88901H0z"/></g><defs><clipPath id="Memory_svg__Memory_svg__Memory_svg__Memory_svg__clip0_16_26"><path fill="#fff" d="M0 0h16v16H0z"/></clipPath></defs></svg>

<svg width="16" height="16" viewBox="0 0 16 16" fill="none" xmlns="http://www.w3.org/2000/svg">
<g clip-path="url(#clip0_16_26)">
<path d="M11.294 14.889H0V9.08901C0.308759 9.07934 0.601064 8.94755 0.812739 8.72256C1.02441 8.49757 1.13816 8.19778 1.129 7.88901C1.13162 7.5747 1.01391 7.27131 0.8 7.04101C0.697782 6.93078 0.574056 6.84268 0.436461 6.78214C0.298866 6.7216 0.150322 6.6899 0 6.68901L0 5.88901C0.0759086 5.88918 0.151729 5.89419 0.227 5.90401C0.151795 5.89354 0.0759295 5.88852 0 5.88901L0 2.88901H16V5.88901H15.994C15.9271 5.88903 15.8603 5.89337 15.794 5.90201C15.8624 5.89371 15.9311 5.88937 16 5.88901V6.68901C15.6817 6.68901 15.3765 6.81544 15.1515 7.04048C14.9264 7.26552 14.8 7.57075 14.8 7.88901C14.8 8.20727 14.9264 8.51249 15.1515 8.73754C15.3765 8.96258 15.6817 9.08901 16 9.08901V14.889H11.294ZM15 13.889V9.58301C14.7279 9.39229 14.5057 9.1388 14.3523 8.84401C14.199 8.54922 14.1189 8.22181 14.1189 7.88951C14.1189 7.5572 14.199 7.22979 14.3523 6.935C14.5057 6.64021 14.7279 6.38673 15 6.19601V3.88901H1V6.19701C1.27429 6.38528 1.49817 6.63803 1.65195 6.93304C1.80574 7.22806 1.88473 7.55633 1.882 7.88901C1.88506 8.22203 1.80622 8.55069 1.65242 8.84609C1.49862 9.14148 1.27458 9.39454 1 9.58301V13.889H1.882V12.889H2.823V13.889H3.764V12.889H4.705V13.889H5.646V12.889H6.587V13.889H7.528V12.889H8.469V13.889H9.41V12.889H10.351V13.889H11.292V12.889H12.233V13.889H15ZM13.176 10.889H10.353V4.88901H13.177V10.889H13.176ZM11.294 9.88901H12.235V5.88901H11.294V9.88901ZM9.412 10.889H6.588V4.88901H9.412V10.889ZM7.529 9.88901H8.47V5.88901H7.529V9.88901ZM5.647 10.889H2.824V4.88901H5.647V10.889ZM3.765 9.88901H4.706V5.88901H3.765V9.88901ZM0 1.88901V0.889008H16V1.88901H0Z" fill="#414141"/>
</g>
<defs>
<clipPath id="clip0_16_26">
<rect width="16" height="16" fill="white"/>
</clipPath>
</defs>
</svg>
